Simply-Blue-Circles/symbolic/categories/applications-education-symbolic.svg

<svg xmlns="http://www.w3.org/2000/svg" width="24" height="24" viewBox="0 0 6.35 6.35"><path d="M4.67.67a.83.83 0 0 0-.01 0c-.55.02-.67.43-.7.68l-.03.2c-.7.11-.63.83-.2.84a.83.83 0 0 1 .21-.67.8.8 0 0 0 1.59.06c.07.12.18.36.16.61.67 0 .34-.78-.13-.87l-.02-.11a.83.83 0 0 0-.87-.74zM1.6.8zm0 0c-.2 0-.45.15-.58.27-.17.15-.04.27-.04.52a.8.8 0 1 0 1.58 0c0-.27.1-.52-.11-.66-.13-.1-.67-.13-.85-.13zm2.6 1.7l-.95 1.14-.91-1.13H1.28L.18 3.7l.24.24.78-.67v1.3h.16v.98h-.1v.13h.46v-1.1h.17v1.1h.45v-.12h-.1v-.99h.2V3.3l.62.66.26-.07.14.03.71-.81.04.32-.66 1.13h.76v1h-.1v.1h.46V4.57h.17v1.1h.46v-.1h-.1v-1h.58l-.57-1.14.03-.4.56.75.36-.1-.88-1.19z" fill="gray"/></svg>

<?xml version="1.0" encoding="UTF-8" standalone="no"?>
<svg
   xmlns:dc="http://purl.org/dc/elements/1.1/"
   xmlns:cc="http://creativecommons.org/ns#"
   xmlns:rdf="http://www.w3.org/1999/02/22-rdf-syntax-ns#"
   xmlns:svg="http://www.w3.org/2000/svg"
   xmlns="http://www.w3.org/2000/svg"
   xmlns:sodipodi="http://sodipodi.sourceforge.net/DTD/sodipodi-0.dtd"
   xmlns:inkscape="http://www.inkscape.org/namespaces/inkscape"
   width="24"
   height="24"
   viewBox="0 0 6.35 6.35"
   version="1.1"
   id="svg4"
   sodipodi:docname="applications-education-symbolic.svg"
   inkscape:version="0.92.4 (5da689c313, 2019-01-14)">
  <metadata
     id="metadata10">
    <rdf:RDF>
      <cc:Work
         rdf:about="">
        <dc:format>image/svg+xml</dc:format>
        <dc:type
           rdf:resource="http://purl.org/dc/dcmitype/StillImage" />
        <dc:title></dc:title>
      </cc:Work>
    </rdf:RDF>
  </metadata>
  <defs
     id="defs8" />
  <sodipodi:namedview
     pagecolor="#ffffff"
     bordercolor="#666666"
     borderopacity="1"
     objecttolerance="10"
     gridtolerance="10"
     guidetolerance="10"
     inkscape:pageopacity="0"
     inkscape:pageshadow="2"
     inkscape:window-width="1085"
     inkscape:window-height="480"
     id="namedview6"
     showgrid="false"
     inkscape:zoom="9.8333333"
     inkscape:cx="12"
     inkscape:cy="12"
     inkscape:window-x="0"
     inkscape:window-y="25"
     inkscape:window-maximized="0"
     inkscape:current-layer="svg4" />
  <path
     d="m 4.67,0.67 a 0.83,0.83 0 0 0 -0.01,0 C 4.11,0.69 3.99,1.1 3.96,1.35 L 3.93,1.55 C 3.23,1.66 3.3,2.38 3.73,2.39 A 0.83,0.83 0 0 1 3.94,1.72 0.8,0.8 0 0 0 5.53,1.78 C 5.6,1.9 5.71,2.14 5.69,2.39 6.36,2.39 6.03,1.61 5.56,1.52 L 5.54,1.41 A 0.83,0.83 0 0 0 4.67,0.67 Z M 1.6,0.8 Z m 0,0 c -0.2,0 -0.45,0.15 -0.58,0.27 -0.16999997,0.15 -0.04,0.27 -0.04,0.52 A 0.8,0.8 0 1 0 2.56,1.59 C 2.56,1.32 2.66,1.07 2.45,0.93 2.32,0.83 1.78,0.8 1.6,0.8 Z M 4.2,2.5 3.25,3.64 2.34,2.51 H 1.28 L 0.18,3.7 0.42,3.94 1.2,3.27 v 1.3 h 0.16 v 0.98 h -0.1 v 0.13 h 0.46 v -1.1 h 0.17 v 1.1 H 2.34 V 5.56 H 2.24 V 4.57 h 0.2 V 3.3 L 3.06,3.96 3.32,3.89 3.46,3.92 4.17,3.11 4.21,3.43 3.55,4.56 h 0.76 v 1 h -0.1 v 0.1 H 4.67 V 4.57 h 0.17 v 1.1 H 5.3 V 5.57 H 5.2 v -1 H 5.78 L 5.21,3.43 5.24,3.03 5.8,3.78 6.16,3.68 5.28,2.49 Z"
     id="path2"
     inkscape:connector-curvature="0"
     style="fill:#808080" />
</svg>
